apps/16/xnsketch.svg

<?xml version="1.0" encoding="UTF-8" standalone="no"?>
<svg
   xmlns:dc="http://purl.org/dc/elements/1.1/"
   xmlns:cc="http://creativecommons.org/ns#"
   xmlns:rdf="http://www.w3.org/1999/02/22-rdf-syntax-ns#"
   xmlns:svg="http://www.w3.org/2000/svg"
   xmlns="http://www.w3.org/2000/svg"
   xmlns:sodipodi="http://sodipodi.sourceforge.net/DTD/sodipodi-0.dtd"
   xmlns:inkscape="http://www.inkscape.org/namespaces/inkscape"
   height="16"
   width="16"
   version="1.1"
   id="svg8"
   sodipodi:docname="applications-graphics-symbolic.svg"
   inkscape:version="0.92.3 (2405546, 2018-03-11)">
  <metadata
     id="metadata14">
    <rdf:RDF>
      <cc:Work
         rdf:about="">
        <dc:format>image/svg+xml</dc:format>
        <dc:type
           rdf:resource="http://purl.org/dc/dcmitype/StillImage" />
      </cc:Work>
    </rdf:RDF>
  </metadata>
  <defs
     id="defs12" />
  <sodipodi:namedview
     pagecolor="#808080"
     bordercolor="#808080666"
     borderopacity="1"
     objecttolerance="10"
     gridtolerance="10"
     guidetolerance="10"
     inkscape:pageopacity="0"
     inkscape:pageshadow="2"
     inkscape:window-width="1291"
     inkscape:window-height="920"
     id="namedview10"
     showgrid="false"
     inkscape:zoom="14.75"
     inkscape:cx="0.47457627"
     inkscape:cy="8"
     inkscape:window-x="0"
     inkscape:window-y="34"
     inkscape:window-maximized="0"
     inkscape:current-layer="svg8" />
  <g
     transform="translate(-911.998 -443.948)"
     id="g6"
     style="fill:#808080;fill-opacity:1">
    <path
       d="M919.89 443.951c-2.11.03-4.945.802-4.897 3.28.05 2.587 2.917 1.662 3.15 2.719.036-.045.089-.082.125-.125.198-.213.395-.388.593-.594.312-.352.636-.679.967-1.03 1.107-1.179 1.154-1.25 3.796-3.25-1.035-.621-2.258-.966-3.297-1-.133-.005-.296-.002-.437 0zm-1.903 1.531c.827 0 1.498.671 1.498 1.5a1.499 1.499 0 1 1-1.498-1.5zm7.27.662c-1.42 2.233-2.368 3.556-3.37 4.587-.64.658-1.163 1.312-1.622 1.781-.84.89-1.938 1.94-3.15 3.093.062 1.47.81 2.747 3.243 3.218 3.898.756 8.027-1.824 7.611-7.06-.178-2.249-1.405-4.282-2.713-5.62zm.342 3.806a1 1 0 0 1 0 2 1 1 0 0 1 0-2zm-.624 3a1 1 0 0 1 0 2 1 1 0 0 1 0-2zm-4.991 2a1 1 0 0 1 0 1.999 1 1 0 0 1 0-2zm2.994 0a1 1 0 0 1 0 1.999 1 1 0 0 1 0-2zM911.998 457.447c1.552.001 1.394-1.787 2.148-2.285.873-.577 1.638.138 1.791.726.193.743-.117 1.632-1.13 1.885-1.073.268-2.662.276-2.809-.326z"
       fill="#808080"
       id="path2"
       style="fill:#808080;fill-opacity:1" />
    <path
       d="M926.035 443.951c-1.8 1.299-4.206 3.302-6.114 5.334-.174.184-.341.362-.505.547-.103.107-.212.195-.315.307-.065.077-.126.163-.19.24-1.872 2.07-3.719 4.68-4.916 6.632 2.977-2.297 4.916-4.164 6.146-5.47.24-.246.53-.566.851-.923 1.204-1.335 2.925-3.438 5.043-6.667z"
       fill="#808080"
       id="path4"
       style="fill:#808080;fill-opacity:1" />
  </g>
</svg>

<svg xmlns="http://www.w3.org/2000/svg" width="16" height="16" version="1.1">
 <g style="fill:#808080" transform="translate(-912,-443.95)">
  <path style="fill:#808080" d="M 919.89,443.95 C 917.78,443.98 914.94,444.75 914.99,447.23 915.04,449.82 917.91,448.89 918.14,449.95 918.18,449.9 918.23,449.87 918.27,449.82 918.47,449.61 918.66,449.44 918.86,449.23 919.17,448.88 919.5,448.55 919.83,448.2 920.93,447.02 920.98,446.95 923.62,444.95 922.59,444.33 921.37,443.99 920.33,443.95 920.19,443.95 920.03,443.95 919.89,443.95 Z M 917.99,445.48 C 918.81,445.48 919.49,446.15 919.49,446.98 A 1.499,1.499 0 1 1 917.99,445.48 Z M 925.26,446.14 C 923.84,448.38 922.89,449.7 921.89,450.73 921.25,451.39 920.72,452.04 920.26,452.51 919.42,453.4 918.33,454.45 917.12,455.61 917.18,457.08 917.92,458.35 920.36,458.82 924.26,459.58 928.39,457 927.97,451.76 927.79,449.51 926.56,447.48 925.26,446.14 Z M 925.6,449.95 A 1,1 0 0 1 925.6,451.95 1,1 0 0 1 925.6,449.95 Z M 924.97,452.95 A 1,1 0 0 1 924.97,454.95 1,1 0 0 1 924.97,452.95 Z M 919.98,454.95 A 1,1 0 0 1 919.98,456.95 1,1 0 0 1 919.98,454.95 Z M 922.98,454.95 A 1,1 0 0 1 922.98,456.95 1,1 0 0 1 922.98,454.95 Z M 912,457.45 C 913.55,457.45 913.39,455.66 914.15,455.16 915.02,454.58 915.78,455.3 915.94,455.89 916.13,456.63 915.82,457.52 914.81,457.77 913.73,458.04 912.15,458.05 912,457.45 Z"/>
  <path style="fill:#808080" d="M 926.03,443.95 C 924.24,445.25 921.83,447.25 919.92,449.29 919.75,449.47 919.58,449.65 919.42,449.83 919.31,449.94 919.2,450.03 919.1,450.14 919.04,450.22 918.97,450.3 918.91,450.38 917.04,452.45 915.19,455.06 913.99,457.01 916.97,454.71 918.91,452.85 920.14,451.54 920.38,451.3 920.67,450.98 920.99,450.62 922.2,449.28 923.92,447.18 926.03,443.95 Z"/>
 </g>
</svg>
